X:178 
T:Rollicking Skipper, The
F:file ID: cre.5/178roll_sk
B:CRE5.055 (Caiptín Sultmhar)
M:6/8
Q:160
R:jig
K:G
d|efg edB|AGG G2A|BdB AGA|BAA ABd|
efg edB|AGG G2A|BdB AGA|BGG G2:|
d|egg egg|egg ged|eaa eaa|eaa aed|
egg egg|egg ged|efg edB|1 AGG G2:|\
[2 AGG G3-|G6||

